hosted/assets/icon/widgets/dark-mode/switch.svg

<svg width="50" height="50" viewBox="0 0 50 50" fill="none" xmlns="http://www.w3.org/2000/svg">
<path d="M27 24.5C27 18.1 21 14.1667 18 13L34 11.5C39.1667 12 49.5 15.3 49.5 24.5C49.5 33.7 41.1667 37.6667 37 38.5C29.8333 38.3333 15.5 37.9 15.5 37.5C24.3 37.5 26.8333 28.8333 27 24.5Z" fill="#3B9281"/>
<path d="M14 11C6.28125 11 0 17.2812 0 25C0 32.7188 6.28125 39 14 39H36C43.7188 39 50 32.7188 50 25C50 17.2812 43.7188 11 36 11H14ZM14 13C20.6406 13 26 18.3594 26 25C26 31.6406 20.6406 37 14 37C7.35938 37 2 31.6406 2 25C2 18.3594 7.35938 13 14 13ZM21.1562 13H36C42.6406 13 48 18.3594 48 25C48 31.6406 42.6406 37 36 37H21.1562C25.2422 34.5508 28 30.0977 28 25C28 19.9023 25.2422 15.4492 21.1562 13Z" fill="white"/>
</svg>

<svg width="50" height="50" fill="none" xmlns="http://www.w3.org/2000/svg"><path d="M27 24.5c0-6.4-6-10.333-9-11.5l16-1.5c5.167.5 15.5 3.8 15.5 13s-8.333 13.167-12.5 14c-7.167-.167-21.5-.6-21.5-1 8.8 0 11.333-8.667 11.5-13z" fill="#3B9281"/><path d="M14 11C6.281 11 0 17.281 0 25s6.281 14 14 14h22c7.719 0 14-6.281 14-14s-6.281-14-14-14H14zm0 2c6.64 0 12 5.36 12 12s-5.36 12-12 12S2 31.64 2 25s5.36-12 12-12zm7.156 0H36c6.64 0 12 5.36 12 12s-5.36 12-12 12H21.156C25.242 34.55 28 30.098 28 25s-2.758-9.55-6.844-12z" fill="#fff"/></svg>
